X:573
T:Reel 573
M:4/4
K:Dmaj
L:1/8
 (3DB,C |DFFF AGFE|DFAB A2AG| (3FED AD BGFD| (3EFE =cA G2FE|DFFD ECA,B,|DFFF A2 (3ABc |dBcA BGFG|EDEF D2|Bc|dcdB cdcB|AFDF A2A2|dcdB cBce|dB (3BBB B2Bc|dcdB ABAF|GBFG E2A2| (3FGF dB AFdF|GFEF E2|
